X:0568
T:The Georgia Grenadier's  March.
M:C
L:1/8
Q:1/2=76
I: :: ::
Z:Jack Campin * www.campin.me.uk * 2009
K:G
D/E/F   |G2 B>c d2 e>f|g2 G>G G2(B/c/d)   |  Tc2    B/c/d e2 G2 |F2 D>D D2
A>B     |c2 e>c A2 c>A|B2 d>F G3     D    |   E2 {d}cB/A/ G2TF2 |G2 G>G G2::
F/E/F/G/|A2 A>A A2 B^c|d2 D>D D2 B/A/B/^c/|   d2    d>d   d2 e>f|g2 G>G G2
d2      |e>dc>e d>cB>d|c>BA>c B2 d2       |   e>d```c>e   d>cB>d|c>BA>c B2
D>D     |E>Gc>e A>GF>E|D>GB>d g3     d    | (3edc (3BAG   D2TA2 |G2 G>G G2:|
<end>
<start>
